src/assets/bold/lm-file-censor-bold.svg

<svg width="24" height="24" viewBox="0 0 24 24" fill="none" xmlns="http://www.w3.org/2000/svg" fill="currentColor">
<path d="M7.5 12.5C7.5 11.9477 7.94772 11.5 8.5 11.5H15.5C16.0523 11.5 16.5 11.9477 16.5 12.5V17.5C16.5 18.0523 16.0523 18.5 15.5 18.5H8.5C7.94772 18.5 7.5 18.0523 7.5 17.5V12.5ZM13.3852 13.6147C13.2322 13.4617 12.9842 13.4617 12.8312 13.6147L12 14.4459L11.1688 13.6148C11.0158 13.4618 10.7678 13.4618 10.6148 13.6148C10.4617 13.7678 10.4617 14.0159 10.6148 14.1689L11.4459 15L10.6148 15.8311C10.4618 15.9841 10.4618 16.2322 10.6148 16.3852C10.7678 16.5382 11.0159 16.5382 11.1689 16.3852L12 15.5541L12.8311 16.3852C12.9841 16.5382 13.2322 16.5382 13.3852 16.3852C13.5382 16.2322 13.5382 15.9841 13.3852 15.8311L12.5541 15L13.3852 14.1688C13.5383 14.0158 13.5383 13.7678 13.3852 13.6147Z" fill="black"/>
<path d="M6.75 3.5C6.41848 3.5 6.10054 3.6317 5.86612 3.86612C5.6317 4.10054 5.5 4.41848 5.5 4.75V19.25C5.5 19.5815 5.6317 19.8995 5.86612 20.1339C6.10054 20.3683 6.41848 20.5 6.75 20.5H17.25C17.5815 20.5 17.8995 20.3683 18.1339 20.1339C18.3683 19.8995 18.5 19.5815 18.5 19.25V8.5H15.25C14.7859 8.5 14.3408 8.31563 14.0126 7.98744C13.6844 7.65925 13.5 7.21413 13.5 6.75V3.5H6.75ZM15 4.56066V6.75C15 6.8163 15.0263 6.87989 15.0732 6.92678C15.1201 6.97366 15.1837 7 15.25 7H17.4393L15 4.56066ZM4.80546 2.80546C5.32118 2.28973 6.02065 2 6.75 2H14.25C14.4489 2 14.6397 2.07902 14.7803 2.21967L19.7803 7.21967C19.921 7.36032 20 7.55109 20 7.75V19.25C20 19.9793 19.7103 20.6788 19.1945 21.1945C18.6788 21.7103 17.9793 22 17.25 22H6.75C6.02065 22 5.32118 21.7103 4.80546 21.1945C4.28973 20.6788 4 19.9793 4 19.25V4.75C4 4.02065 4.28973 3.32118 4.80546 2.80546Z" fill="black"/>
</svg>

<svg xmlns="http://www.w3.org/2000/svg" width="24" height="24" fill="currentColor" viewBox="0 0 24 24">
  <path d="M7.5 12.5a1 1 0 0 1 1-1h7a1 1 0 0 1 1 1v5a1 1 0 0 1-1 1h-7a1 1 0 0 1-1-1v-5Zm5.885 1.115a.392.392 0 0 0-.554 0l-.831.83-.831-.83a.392.392 0 1 0-.554.554l.83.831-.83.831a.392.392 0 0 0 .554.554l.831-.83.831.83a.392.392 0 0 0 .554-.554l-.83-.831.83-.831a.392.392 0 0 0 0-.554Z"/>
  <path d="M6.75 3.5A1.25 1.25 0 0 0 5.5 4.75v14.5a1.25 1.25 0 0 0 1.25 1.25h10.5a1.25 1.25 0 0 0 1.25-1.25V8.5h-3.25a1.75 1.75 0 0 1-1.75-1.75V3.5H6.75ZM15 4.56v2.19a.25.25 0 0 0 .25.25h2.19L15 4.56ZM4.805 2.806A2.75 2.75 0 0 1 6.75 2h7.5a.75.75 0 0 1 .53.22l5 5c.141.14.22.331.22.53v11.5A2.75 2.75 0 0 1 17.25 22H6.75A2.75 2.75 0 0 1 4 19.25V4.75c0-.73.29-1.429.805-1.945Z"/>
</svg>
